svgs/revisit.svg

<?xml version="1.0" encoding="UTF-8"?>
<svg width="1000px" height="1000px" viewBox="0 0 1000 1000" version="1.1" xmlns="http://www.w3.org/2000/svg" xmlns:xlink="http://www.w3.org/1999/xlink">
    <!-- Generator: Sketch 52.2 (67145) - http://www.bohemiancoding.com/sketch -->
    <title>revisit</title>
    <desc>Created with Sketch.</desc>
    <g id="revisit" stroke="none" stroke-width="1" fill="none" fill-rule="evenodd">
        <path d="M973.536258,320.382087 C973.674964,320.509316 973.8126,320.637692 973.949151,320.767201 C978.189609,324.785004 981.146505,329.632906 982.819844,334.808377 C983.881976,338.083444 984.455959,341.578403 984.455959,345.207422 C984.455959,348.836441 983.881976,352.3314 982.819844,355.606467 C981.146505,360.781938 978.189609,365.62984 973.949156,369.647639 C973.8126,369.777152 973.674964,369.905528 973.536258,370.032757 L771.548294,556.483186 C757.880756,569.099374 736.573586,568.247088 723.957397,554.57955 C711.341208,540.912012 712.193495,519.604842 725.861033,506.988653 L864.638714,378.886178 L266.839378,378.886178 C156.668586,378.886178 67.357513,468.197252 67.357513,578.368044 C67.357513,688.538836 156.668586,777.849909 266.839378,777.849909 L966.321244,777.849909 C984.921507,777.849909 1000,792.928402 1000,811.528666 C1000,830.128929 984.921507,845.207422 966.321244,845.207422 L266.839378,845.207422 C119.468059,845.207422 0,725.739363 0,578.368044 C0,430.996725 119.468059,311.528666 266.839378,311.528666 L864.638714,311.528666 L725.861033,183.426191 C712.193495,170.810002 711.341208,149.502832 723.957397,135.835294 C736.573586,122.167756 757.880756,121.31547 771.548294,133.931658 L973.536258,320.382087 Z" id="Shape" fill="#101010" fill-rule="nonzero"></path>
    </g>
</svg>

<svg width="1000" height="1000" viewBox="0 0 1000 1000" xmlns="http://www.w3.org/2000/svg"><path d="M973.536 320.382a33.486 33.486 0 0 1 9.284 14.426 33.653 33.653 0 0 1 1.636 10.4c0 3.628-.574 7.123-1.636 10.398a33.486 33.486 0 0 1-9.284 14.427l-201.988 186.45c-13.667 12.616-34.974 11.764-47.59-1.903-12.617-13.668-11.765-34.975 1.903-47.591l138.778-128.103h-597.8c-110.17 0-199.481 89.311-199.481 199.482 0 110.17 89.31 199.482 199.481 199.482h699.482c18.6 0 33.679 15.078 33.679 33.679 0 18.6-15.078 33.678-33.679 33.678H266.84C119.47 845.207 0 725.74 0 578.368c0-147.371 119.468-266.84 266.84-266.84h597.799L725.86 183.427c-13.668-12.616-14.52-33.923-1.904-47.59 12.617-13.668 33.924-14.52 47.591-1.904l201.988 186.45z" fill="#101010"/></svg>
